papirus/48x48/categories/preferences-desktop-icons.svg

<?xml version="1.0" encoding="UTF-8" standalone="no"?>
<!-- Created with Inkscape (http://www.inkscape.org/) -->

<svg
   xmlns:dc="http://purl.org/dc/elements/1.1/"
   xmlns:cc="http://creativecommons.org/ns#"
   xmlns:rdf="http://www.w3.org/1999/02/22-rdf-syntax-ns#"
   xmlns:svg="http://www.w3.org/2000/svg"
   xmlns="http://www.w3.org/2000/svg"
   xmlns:xlink="http://www.w3.org/1999/xlink"
   xmlns:sodipodi="http://sodipodi.sourceforge.net/DTD/sodipodi-0.dtd"
   xmlns:inkscape="http://www.inkscape.org/namespaces/inkscape"
   id="svg2817"
   height="48"
   width="48"
   version="1.0"
   inkscape:version="0.91 r"
   sodipodi:docname="preferences-desktop-icons.svg">
  <metadata
     id="metadata57">
    <rdf:RDF>
      <cc:Work
         rdf:about="">
        <dc:format>image/svg+xml</dc:format>
        <dc:type
           rdf:resource="http://purl.org/dc/dcmitype/StillImage" />
        <dc:title />
      </cc:Work>
    </rdf:RDF>
  </metadata>
  <sodipodi:namedview
     pagecolor="#ffffff"
     bordercolor="#666666"
     borderopacity="1"
     objecttolerance="10"
     gridtolerance="10"
     guidetolerance="10"
     inkscape:pageopacity="0"
     inkscape:pageshadow="2"
     inkscape:window-width="1600"
     inkscape:window-height="840"
     id="namedview55"
     showgrid="false"
     inkscape:zoom="9.95"
     inkscape:cx="11.678392"
     inkscape:cy="24.778257"
     inkscape:window-x="-4"
     inkscape:window-y="34"
     inkscape:window-maximized="1"
     inkscape:current-layer="svg2817" />
  <defs
     id="defs2819">
    <linearGradient
       inkscape:collect="always"
       id="linearGradient4185">
      <stop
         style="stop-color:#000000;stop-opacity:1;"
         offset="0"
         id="stop4187" />
      <stop
         style="stop-color:#000000;stop-opacity:0;"
         offset="1"
         id="stop4189" />
    </linearGradient>
    <linearGradient
       id="linearGradient2815"
       y2="17.5"
       spreadMethod="reflect"
       gradientUnits="userSpaceOnUse"
       x2="3.0052"
       y1="17.5"
       x1="44.995">
      <stop
         id="stop3277"
         style="stop-color:#fff;stop-opacity:0"
         offset="0" />
      <stop
         id="stop3283"
         style="stop-color:#fff"
         offset=".245" />
      <stop
         id="stop3285"
         style="stop-color:#fff"
         offset=".77350" />
      <stop
         id="stop3279"
         style="stop-color:#fff;stop-opacity:0"
         offset="1" />
    </linearGradient>
    <linearGradient
       id="linearGradient2813"
       y2="8"
       gradientUnits="userSpaceOnUse"
       x2="26"
       y1="22"
       x1="26">
      <stop
         id="stop3829"
         style="stop-color:#fff"
         offset="0" />
      <stop
         id="stop4295"
         style="stop-color:#fff"
         offset=".30213" />
      <stop
         id="stop4293"
         style="stop-color:#fff;stop-opacity:.69020"
         offset=".34361" />
      <stop
         id="stop3832"
         style="stop-color:#fff;stop-opacity:0"
         offset="1" />
    </linearGradient>
    <linearGradient
       id="linearGradient2811"
       y2="45.934"
       gradientUnits="userSpaceOnUse"
       x2="43.007"
       gradientTransform="matrix(1.2822 0 0 1.1747 -6.0702 -5.3032)"
       y1="30.555"
       x1="23.452">
      <stop
         id="stop4561"
         style="stop-color:#fff;stop-opacity:0"
         offset="0" />
      <stop
         id="stop4563"
         style="stop-color:#fff;stop-opacity:0"
         offset="1" />
    </linearGradient>
    <linearGradient
       id="linearGradient2809"
       y2="45.042"
       gradientUnits="userSpaceOnUse"
       x2="15.464"
       y1="7.9757"
       x1="15.464">
      <stop
         id="stop3297"
         style="stop-color:#c9af8b"
         offset="0" />
      <stop
         id="stop3299"
         style="stop-color:#ad8757"
         offset=".23942" />
      <stop
         id="stop3301"
         style="stop-color:#c2a57f"
         offset=".27582" />
      <stop
         id="stop3303"
         style="stop-color:#9d7d53"
         offset="1" />
    </linearGradient>
    <linearGradient
       id="linearGradient2807"
       y2="37.277"
       gradientUnits="userSpaceOnUse"
       x2="24.997"
       gradientTransform="matrix(1.2822 0 0 1.5573 -6.0702 -15.291)"
       y1="15.378"
       x1="24.823">
      <stop
         id="stop3201"
         style="stop-color:#dac197"
         offset="0" />
      <stop
         id="stop3203"
         style="stop-color:#c1a581"
         offset=".23942" />
      <stop
         id="stop3205"
         style="stop-color:#dbc298"
         offset=".27582" />
      <stop
         id="stop3207"
         style="stop-color:#a68b60"
         offset="1" />
    </linearGradient>
    <radialGradient
       id="radialGradient2805"
       xlink:href="#linearGradient3681"
       gradientUnits="userSpaceOnUse"
       cy="41.5"
       cx="5"
       gradientTransform="matrix(.59382 0 0 1.5367 41.141 -103.94)"
       r="5" />
    <linearGradient
       id="linearGradient2803"
       y2="35"
       gradientUnits="userSpaceOnUse"
       x2="17.554"
       gradientTransform="matrix(1.757 0 0 1.397 -17.394 -16.412)"
       y1="46"
       x1="17.554">
      <stop
         id="stop3705"
         style="stop-opacity:0"
         offset="0" />
      <stop
         id="stop3711"
         offset=".5" />
      <stop
         id="stop3707"
         style="stop-opacity:0"
         offset="1" />
    </linearGradient>
    <linearGradient
       id="linearGradient3681">
      <stop
         id="stop3683"
         offset="0" />
      <stop
         id="stop3685"
         style="stop-opacity:0"
         offset="1" />
    </linearGradient>
    <radialGradient
       id="radialGradient2801"
       xlink:href="#linearGradient3681"
       gradientUnits="userSpaceOnUse"
       cy="41.5"
       cx="5"
       gradientTransform="matrix(.59382 0 0 1.5367 -6.6595 -103.94)"
       r="5" />
    <linearGradient
       id="linearGradient2789"
       y2="25.411"
       gradientUnits="userSpaceOnUse"
       x2="57.726"
       gradientTransform="matrix(0 .71282 -.67402 0 50.746 15.046)"
       y1="25.411"
       x1="13.472">
      <stop
         id="stop4224"
         style="stop-color:#fff"
         offset="0" />
      <stop
         id="stop4226"
         style="stop-color:#fff;stop-opacity:0"
         offset="1" />
    </linearGradient>
    <linearGradient
       id="linearGradient2787"
       y2="20.71"
       gradientUnits="userSpaceOnUse"
       x2=".81572"
       gradientTransform="matrix(0 -.61460 -.58384 0 46.949 46.633)"
       y1="20.71"
       x1="28.315">
      <stop
         id="stop2266"
         style="stop-color:#d7e866"
         offset="0" />
      <stop
         id="stop2268"
         style="stop-color:#8cab2a"
         offset="1" />
    </linearGradient>
    <linearGradient
       inkscape:collect="always"
       xlink:href="#linearGradient4185"
       id="linearGradient4191"
       x1="24.291777"
       y1="22.120689"
       x2="24.238728"
       y2="3.9509284"
       gradientUnits="userSpaceOnUse" />
  </defs>
  <g
     id="g4187"
     transform="translate(0,1)">
    <rect
       ry="2"
       rx="2"
       y="-44"
       x="-43"
       height="40"
       width="40"
       id="rect4203-6"
       style="fill:#d951c4;fill-opacity:1;stroke:none"
       transform="matrix(0,-1,-1,0,0,0)" />
    <path
       inkscape:connector-curvature="0"
       id="rect4592"
       d="M 6,3 C 4.892,3 4,3.892 4,5 L 4,6 C 4,4.892 4.892,4 6,4 l 36,0 c 1.108,0 2,0.892 2,2 L 44,5 C 44,3.892 43.108,3 42,3 L 6,3 Z"
       style="opacity:0.2;fill:#ffffff;fill-opacity:1;stroke:none" />
    <path
       inkscape:connector-curvature="0"
       style="opacity:0.3;fill:#000000;fill-opacity:1;stroke:none"
       d="M 6,43 C 4.892,43 4,42.108 4,41 l 0,-1 c 0,1.108 0.892,2 2,2 l 36,0 c 1.108,0 2,-0.892 2,-2 l 0,1 c 0,1.108 -0.892,2 -2,2 L 6,43 Z"
       id="path4597" />
    <g
       id="g4188">
      <path
         style="opacity:1;fill:#ffffff;fill-opacity:1;stroke:none;stroke-opacity:1"
         d="M 22,14 A 7.0000002,7 0 0 1 15,21 7.0000002,7 0 0 1 8,14 7.0000002,7 0 0 1 15,6.9999997 7.0000002,7 0 0 1 22,14 Z"
         id="path4183"
         inkscape:connector-curvature="0" />
      <path
         inkscape:connector-curvature="0"
         id="path4186"
         d="M 40,14 A 7.0000002,7 0 0 1 33,21 7.0000002,7 0 0 1 26,14 7.0000002,7 0 0 1 33,6.9999997 7.0000002,7 0 0 1 40,14 Z"
         style="opacity:1;fill:#ffffff;fill-opacity:1;stroke:none;stroke-opacity:1" />
    </g>
    <path
       inkscape:connector-curvature="0"
       style="opacity:0.15;fill:url(#linearGradient4191);fill-opacity:1;stroke:none"
       d="m 6,3.9999995 c -1.108,0 -2,0.892 -2,2 L 4,23 l 39.999999,0 0,-17.0000005 c 0,-1.108 -0.892,-2 -2,-2 L 6,3.9999995 Z"
       id="path4026" />
    <g
       transform="translate(0,19)"
       id="g4192">
      <path
         inkscape:connector-curvature="0"
         id="path4194"
         d="M 22,14 A 7.0000002,7 0 0 1 15,21 7.0000002,7 0 0 1 8,14 7.0000002,7 0 0 1 15,6.9999997 7.0000002,7 0 0 1 22,14 Z"
         style="opacity:1;fill:#ffffff;fill-opacity:1;stroke:none;stroke-opacity:1" />
      <path
         style="opacity:1;fill:#ffffff;fill-opacity:1;stroke:none;stroke-opacity:1"
         d="M 40,14 A 7.0000002,7 0 0 1 33,21 7.0000002,7 0 0 1 26,14 7.0000002,7 0 0 1 33,6.9999997 7.0000002,7 0 0 1 40,14 Z"
         id="path4196"
         inkscape:connector-curvature="0" />
    </g>
    <path
       inkscape:connector-curvature="0"
       id="path4038"
       d="m 4,23 20,20 18,0 c 1.108,0 2,-0.892 2,-2 L 44,23 4,23 Z"
       style="opacity:0.1;fill:#000000;fill-opacity:1;stroke:none" />
  </g>
  <g
     id="g4227"
     style="font-style:normal;font-variant:normal;font-weight:normal;font-stretch:normal;font-size:29.80191803px;line-height:125%;font-family:'Droid Naskh Shift Alt';-inkscape-font-specification:'Droid Naskh Shift Alt';letter-spacing:0px;word-spacing:0px;fill:#ffffff;fill-opacity:1;stroke:none;stroke-width:1px;stroke-linecap:butt;stroke-linejoin:miter;stroke-opacity:1"
     transform="matrix(0.99414699,0,0,1.0058875,12.585072,-0.41623521)" />
</svg>

<?xml version="1.0" encoding="UTF-8" standalone="no"?>
<!-- Created with Inkscape (http://www.inkscape.org/) -->
<svg id="svg2817" xmlns:rdf="http://www.w3.org/1999/02/22-rdf-syntax-ns#" xmlns="http://www.w3.org/2000/svg" height="48" width="48" version="1.0" xmlns:cc="http://creativecommons.org/ns#" xmlns:xlink="http://www.w3.org/1999/xlink" xmlns:dc="http://purl.org/dc/elements/1.1/">
 <metadata id="metadata57">
  <rdf:RDF>
   <cc:Work rdf:about="">
    <dc:format>image/svg+xml</dc:format>
    <dc:type rdf:resource="http://purl.org/dc/dcmitype/StillImage"/>
    <dc:title/>
   </cc:Work>
  </rdf:RDF>
 </metadata>
 <defs id="defs2819">
  <linearGradient id="linearGradient4191" y2="3.9509" gradientUnits="userSpaceOnUse" x2="24.239" y1="22.121" x1="24.292">
   <stop id="stop4187" offset="0"/>
   <stop id="stop4189" stop-opacity="0" offset="1"/>
  </linearGradient>
 </defs>
 <g id="g4187" transform="translate(0,1)">
  <rect id="rect4203-6" transform="matrix(0,-1,-1,0,0,0)" rx="2" ry="2" height="40" width="40" y="-44" x="-43" fill="#d951c4"/>
  <path id="rect4592" opacity=".2" d="m6 3c-1.108 0-2 0.892-2 2v1c0-1.108 0.892-2 2-2h36c1.108 0 2 0.892 2 2v-1c0-1.108-0.892-2-2-2h-36z" fill="#fff"/>
  <path id="path4597" opacity=".3" d="m6 43c-1.108 0-2-0.892-2-2v-1c0 1.108 0.892 2 2 2h36c1.108 0 2-0.892 2-2v1c0 1.108-0.892 2-2 2h-36z"/>
  <g id="g4188" fill="#fff">
   <path id="path4183" d="m22 14a7 7 0 0 1 -7 7 7 7 0 0 1 -7 -7 7 7 0 0 1 7 -7 7 7 0 0 1 7 7z"/>
   <path id="path4186" d="m40 14a7 7 0 0 1 -7 7 7 7 0 0 1 -7 -7 7 7 0 0 1 7 -7 7 7 0 0 1 7 7z"/>
  </g>
  <path id="path4026" opacity=".15" d="m6 4c-1.108 0-2 0.892-2 2v17h40v-17c0-1.108-0.892-2-2-2h-36z" fill="url(#linearGradient4191)"/>
  <g id="g4192" fill="#fff" transform="translate(0,19)">
   <path id="path4194" d="m22 14a7 7 0 0 1 -7 7 7 7 0 0 1 -7 -7 7 7 0 0 1 7 -7 7 7 0 0 1 7 7z"/>
   <path id="path4196" d="m40 14a7 7 0 0 1 -7 7 7 7 0 0 1 -7 -7 7 7 0 0 1 7 -7 7 7 0 0 1 7 7z"/>
  </g>
  <path id="path4038" opacity=".1" d="m4 23 20 20h18c1.108 0 2-0.892 2-2v-18h-40z"/>
 </g>
</svg>
